src/assets/animalImage/img/chameleon.svg

<?xml version="1.0" encoding="UTF-8" standalone="no"?><!DOCTYPE svg PUBLIC "-//W3C//DTD SVG 1.1//EN" "http://www.w3.org/Graphics/SVG/1.1/DTD/svg11.dtd"><svg width="100%" height="100%" viewBox="0 0 65 50" version="1.1" xmlns="http://www.w3.org/2000/svg" xmlns:xlink="http://www.w3.org/1999/xlink" xml:space="preserve" style="fill-rule:evenodd;clip-rule:evenodd;stroke-linejoin:round;stroke-miterlimit:1.41421;"><path d="M15.611,5.395c-0.929,0 -1.682,0.753 -1.682,1.682c0,0.928 0.753,1.682 1.682,1.682c0.929,0 1.682,-0.754 1.682,-1.682c0,-0.929 -0.753,-1.682 -1.682,-1.682" style="fill:#434040;fill-rule:nonzero;"/><path d="M14.078,12.456c-2.705,0 -4.898,-2.191 -4.898,-4.896c0,-2.703 2.193,-4.896 4.898,-4.896c2.703,0 4.895,2.193 4.895,4.896c0,2.705 -2.19,4.896 -4.895,4.896m50.244,12.474c-0.375,-8.702 -4.549,-17.706 -15.45,-22.139c0.142,0.407 0.277,0.836 0.399,1.286c0.137,0.488 0.234,1.007 0.342,1.527c0.06,0.531 0.179,1.057 0.188,1.602c0.031,0.538 0.064,1.074 0.019,1.605c-0.014,0.263 -0.027,0.524 -0.04,0.782c-0.04,0.256 -0.078,0.508 -0.117,0.757c-0.043,0.246 -0.066,0.491 -0.123,0.723c-0.065,0.232 -0.127,0.459 -0.188,0.679c-0.061,0.22 -0.12,0.432 -0.177,0.638c-0.073,0.201 -0.159,0.39 -0.233,0.573c-0.157,0.363 -0.28,0.702 -0.424,0.986c-0.159,0.277 -0.298,0.517 -0.412,0.716c-0.227,0.395 -0.356,0.619 -0.356,0.619c0,0 0.098,-0.241 0.27,-0.661c0.084,-0.21 0.188,-0.463 0.306,-0.754c0.104,-0.297 0.178,-0.645 0.282,-1.014c0.046,-0.186 0.104,-0.377 0.147,-0.577c0.028,-0.206 0.057,-0.416 0.087,-0.633c0.029,-0.215 0.059,-0.438 0.09,-0.664c0.024,-0.227 0.014,-0.463 0.022,-0.698c0.005,-0.236 0.009,-0.475 0.014,-0.718c-0.021,-0.242 -0.042,-0.487 -0.063,-0.734c-0.024,-0.492 -0.123,-0.984 -0.219,-1.475c-0.072,-0.492 -0.253,-0.966 -0.37,-1.438c-0.165,-0.463 -0.316,-0.92 -0.502,-1.346c-0.361,-0.859 -0.769,-1.626 -1.152,-2.259c-0.087,-0.144 -0.172,-0.278 -0.255,-0.408c-0.644,-0.203 -1.303,-0.396 -1.99,-0.57c-0.899,-0.227 -1.776,-0.417 -2.64,-0.579c0.192,0.518 0.378,1.075 0.537,1.67c0.138,0.489 0.235,1.008 0.343,1.528c0.06,0.531 0.179,1.057 0.188,1.601c0.032,0.539 0.063,1.075 0.019,1.606c-0.013,0.262 -0.027,0.525 -0.04,0.782c-0.039,0.255 -0.078,0.508 -0.117,0.756c-0.042,0.247 -0.066,0.491 -0.123,0.725c-0.064,0.232 -0.127,0.457 -0.188,0.678c-0.061,0.218 -0.12,0.432 -0.178,0.638c-0.072,0.201 -0.158,0.389 -0.232,0.573c-0.157,0.363 -0.279,0.702 -0.424,0.987c-0.159,0.275 -0.298,0.516 -0.412,0.714c-0.226,0.395 -0.356,0.62 -0.356,0.62c0,0 0.098,-0.24 0.269,-0.662c0.086,-0.21 0.189,-0.463 0.307,-0.753c0.104,-0.296 0.178,-0.645 0.281,-1.014c0.048,-0.186 0.105,-0.376 0.149,-0.577c0.028,-0.205 0.056,-0.416 0.086,-0.634c0.029,-0.215 0.059,-0.436 0.09,-0.664c0.024,-0.225 0.014,-0.461 0.023,-0.697c0.004,-0.236 0.009,-0.476 0.013,-0.718c-0.021,-0.243 -0.042,-0.487 -0.063,-0.734c-0.024,-0.492 -0.123,-0.985 -0.219,-1.475c-0.073,-0.492 -0.253,-0.967 -0.37,-1.438c-0.165,-0.464 -0.315,-0.92 -0.501,-1.346c-0.363,-0.859 -0.77,-1.626 -1.152,-2.259c-0.053,-0.087 -0.104,-0.166 -0.156,-0.248c-1.497,-0.178 -2.963,-0.238 -4.422,-0.169c0.05,0.168 0.101,0.334 0.147,0.507c0.138,0.488 0.236,1.008 0.343,1.527c0.06,0.532 0.179,1.058 0.188,1.602c0.032,0.54 0.063,1.074 0.019,1.605c-0.013,0.264 -0.027,0.525 -0.04,0.783c-0.039,0.255 -0.078,0.507 -0.117,0.756c-0.043,0.246 -0.066,0.491 -0.123,0.724c-0.064,0.233 -0.127,0.458 -0.188,0.68c-0.061,0.218 -0.12,0.43 -0.178,0.636c-0.072,0.201 -0.159,0.39 -0.232,0.573c-0.157,0.364 -0.279,0.704 -0.425,0.987c-0.159,0.276 -0.297,0.518 -0.411,0.716c-0.226,0.394 -0.356,0.619 -0.356,0.619c0,0 0.098,-0.241 0.269,-0.662c0.085,-0.209 0.189,-0.463 0.307,-0.754c0.104,-0.294 0.178,-0.645 0.281,-1.012c0.047,-0.186 0.105,-0.377 0.149,-0.579c0.028,-0.203 0.056,-0.416 0.085,-0.633c0.03,-0.215 0.06,-0.437 0.091,-0.663c0.023,-0.227 0.014,-0.463 0.023,-0.699c0.004,-0.236 0.008,-0.475 0.013,-0.718c-0.021,-0.241 -0.042,-0.486 -0.063,-0.733c-0.024,-0.492 -0.123,-0.986 -0.219,-1.475c-0.073,-0.492 -0.253,-0.967 -0.37,-1.439c-0.165,-0.462 -0.315,-0.919 -0.502,-1.346c-0.127,-0.3 -0.26,-0.585 -0.395,-0.861c-3.866,0.459 -7.775,1.875 -12.254,4.551c-0.197,-1.879 -5.145,-7.519 -11.179,-3.559c-6.43,-0.795 -6.43,5.835 -6.43,5.835c0,0 -3.515,6.18 -3.561,8.508c-0.033,1.557 0.906,1.978 1.805,2.248c4.647,-2.646 8.865,-2.017 12.293,-1.506c1.785,0.267 3.332,0.494 4.49,0.167c0.4,-0.114 0.821,0.122 0.935,0.525c0.113,0.401 -0.121,0.821 -0.523,0.937c-1.473,0.413 -3.165,0.162 -5.127,-0.13c-3.066,-0.458 -6.813,-0.988 -10.836,1.088c3.821,6.655 14.403,8.912 22.091,3.598c1.677,0.105 3.877,0.355 6.251,0.552c0.438,0.037 0.009,1.418 -0.416,2.797c-0.149,0.48 -5.823,1.668 -5.934,2.088c-0.206,0.792 5.158,0.148 5.541,0.695c0.38,0.549 -0.692,3.067 -0.197,4.255c0.329,0.791 3.009,-0.019 3.759,-1.881c0.378,-0.927 -1.205,-2.766 -0.853,-3.501c1.056,-2.205 1.982,-4.215 2.144,-4.213c1.101,0.034 2.197,0.038 3.262,-0.013c2.22,-0.101 4.365,-0.31 6.349,-0.484c0.252,-0.021 0.675,0.865 1.122,1.898c0.202,0.473 -3.718,1.188 -3.516,1.654c0.414,0.947 3.859,0.31 5.145,1.494c1.287,1.188 1.328,4.383 2.276,4.75c0.524,0.2 2.713,-1.372 2.275,-3.364c-0.639,-2.908 -4.14,-6.66 -3.956,-6.667c2.429,-0.113 4.449,0.004 5.835,0.721c5.146,2.663 1.387,22.467 -11.475,23.459c-7.007,0.538 -9.346,-5.067 -8.476,-8.193c0.859,-3.089 4.719,-4.768 7.39,-4.37c2.671,0.392 3.164,2.868 1.98,4.548c-0.159,0.222 -0.338,0.426 -0.532,0.616c-0.457,-0.464 -1.095,-0.754 -1.798,-0.754c-1.396,0 -2.526,1.132 -2.526,2.526c0,1.397 1.13,2.524 2.526,2.524c1.261,0 2.298,-0.925 2.487,-2.138c0.679,-0.169 1.35,-0.498 1.92,-1.09c2.276,-2.376 1.78,-6.63 -2.53,-8.09c-4.822,-1.632 -11.58,1.399 -11.779,6.544c-0.198,5.142 4.522,11.178 12.653,10.713c12.067,-0.696 20.75,-13.227 20.266,-24.795" style="fill:#4baa2b;fill-rule:nonzero;"/><path d="M34.322,2.594c0.117,0.472 0.297,0.947 0.37,1.439c0.096,0.489 0.195,0.983 0.219,1.475c0.021,0.247 0.042,0.492 0.063,0.733c-0.005,0.243 -0.01,0.482 -0.013,0.718c-0.009,0.236 0,0.472 -0.023,0.698c-0.031,0.227 -0.061,0.449 -0.091,0.664c-0.029,0.217 -0.057,0.429 -0.086,0.633c-0.043,0.202 -0.101,0.392 -0.148,0.578c-0.104,0.368 -0.177,0.718 -0.281,1.013c-0.118,0.291 -0.222,0.545 -0.307,0.754c-0.171,0.42 -0.269,0.662 -0.269,0.662c0,0 0.129,-0.225 0.356,-0.619c0.114,-0.198 0.252,-0.44 0.411,-0.717c0.145,-0.282 0.267,-0.623 0.425,-0.986c0.073,-0.183 0.16,-0.372 0.232,-0.573c0.058,-0.206 0.117,-0.418 0.178,-0.636c0.061,-0.222 0.123,-0.447 0.188,-0.68c0.057,-0.233 0.08,-0.478 0.123,-0.724c0.039,-0.249 0.077,-0.501 0.117,-0.756c0.013,-0.258 0.027,-0.519 0.039,-0.783c0.045,-0.531 0.013,-1.065 -0.018,-1.605c-0.009,-0.544 -0.128,-1.07 -0.188,-1.602c-0.108,-0.519 -0.205,-1.039 -0.343,-1.527c-0.046,-0.174 -0.097,-0.339 -0.147,-0.507c-0.568,0.027 -1.136,0.073 -1.704,0.141c0.135,0.276 0.268,0.561 0.395,0.861c0.187,0.426 0.337,0.884 0.502,1.346" style="fill:#e0dd00;fill-rule:nonzero;"/><path d="M40.858,2.921c0.187,0.427 0.337,0.884 0.502,1.346c0.117,0.472 0.298,0.947 0.37,1.439c0.096,0.49 0.195,0.982 0.219,1.475c0.021,0.246 0.042,0.491 0.063,0.734c-0.005,0.242 -0.009,0.482 -0.013,0.718c-0.009,0.236 0.001,0.472 -0.023,0.697c-0.031,0.227 -0.061,0.448 -0.09,0.664c-0.03,0.218 -0.059,0.429 -0.087,0.634c-0.043,0.2 -0.101,0.391 -0.147,0.577c-0.104,0.37 -0.178,0.718 -0.282,1.014c-0.118,0.29 -0.222,0.544 -0.306,0.753c-0.172,0.421 -0.27,0.662 -0.27,0.662c0,0 0.129,-0.226 0.356,-0.619c0.115,-0.198 0.253,-0.44 0.412,-0.716c0.144,-0.284 0.267,-0.624 0.424,-0.987c0.074,-0.183 0.16,-0.372 0.233,-0.573c0.057,-0.205 0.116,-0.418 0.177,-0.637c0.061,-0.221 0.123,-0.447 0.188,-0.678c0.057,-0.234 0.08,-0.477 0.123,-0.725c0.039,-0.247 0.077,-0.501 0.117,-0.756c0.013,-0.258 0.026,-0.52 0.04,-0.783c0.045,-0.53 0.012,-1.066 -0.019,-1.605c-0.009,-0.544 -0.128,-1.07 -0.188,-1.602c-0.108,-0.519 -0.205,-1.039 -0.342,-1.527c-0.161,-0.595 -0.346,-1.152 -0.538,-1.671c-0.752,-0.14 -1.493,-0.253 -2.225,-0.34c0.051,0.082 0.102,0.16 0.154,0.247c0.383,0.634 0.791,1.4 1.152,2.259" style="fill:#e0dd00;fill-rule:nonzero;"/><path d="M47.814,4.571c0.187,0.427 0.337,0.884 0.502,1.347c0.117,0.471 0.298,0.946 0.37,1.437c0.096,0.492 0.195,0.984 0.219,1.476c0.021,0.247 0.042,0.492 0.063,0.734c-0.005,0.243 -0.009,0.481 -0.013,0.718c-0.009,0.235 0.001,0.471 -0.023,0.698c-0.031,0.226 -0.061,0.448 -0.09,0.664c-0.03,0.216 -0.059,0.427 -0.087,0.633c-0.043,0.2 -0.101,0.39 -0.147,0.576c-0.104,0.37 -0.178,0.718 -0.282,1.014c-0.118,0.292 -0.222,0.546 -0.306,0.755c-0.172,0.42 -0.27,0.661 -0.27,0.661c0,0 0.129,-0.225 0.356,-0.619c0.115,-0.199 0.253,-0.439 0.412,-0.716c0.144,-0.284 0.267,-0.623 0.424,-0.986c0.074,-0.183 0.16,-0.372 0.233,-0.573c0.057,-0.206 0.116,-0.418 0.177,-0.638c0.061,-0.22 0.123,-0.447 0.188,-0.679c0.057,-0.232 0.08,-0.477 0.123,-0.723c0.039,-0.249 0.077,-0.501 0.117,-0.757c0.013,-0.258 0.026,-0.519 0.04,-0.783c0.045,-0.53 0.012,-1.066 -0.019,-1.605c-0.009,-0.544 -0.128,-1.07 -0.188,-1.602c-0.108,-0.519 -0.205,-1.038 -0.342,-1.527c-0.122,-0.45 -0.257,-0.878 -0.399,-1.285c-0.786,-0.32 -1.607,-0.615 -2.464,-0.886c0.082,0.13 0.167,0.264 0.254,0.407c0.383,0.634 0.791,1.401 1.152,2.259" style="fill:#e0dd00;fill-rule:nonzero;"/></svg>

<?xml version="1.0" encoding="UTF-8" standalone="no"?>
<!DOCTYPE svg PUBLIC "-//W3C//DTD SVG 1.1//EN" "http://www.w3.org/Graphics/SVG/1.1/DTD/svg11.dtd">
<svg width="100%" height="100%" viewBox="0 0 65 65" version="1.1" xmlns="http://www.w3.org/2000/svg" xmlns:xlink="http://www.w3.org/1999/xlink" xml:space="preserve" xmlns:serif="http://www.serif.com/" style="fill-rule:evenodd;clip-rule:evenodd;stroke-linejoin:round;stroke-miterlimit:1.41421;">
    <g transform="matrix(1,0,0,1,0,7.5)">
        <path d="M15.611,5.395C14.682,5.395 13.929,6.148 13.929,7.077C13.929,8.005 14.682,8.759 15.611,8.759C16.54,8.759 17.293,8.005 17.293,7.077C17.293,6.148 16.54,5.395 15.611,5.395" style="fill:rgb(67,64,64);fill-rule:nonzero;"/>
    </g>
    <g transform="matrix(1,0,0,1,0,7.5)">
        <path d="M14.078,12.456C11.373,12.456 9.18,10.265 9.18,7.56C9.18,4.857 11.373,2.664 14.078,2.664C16.781,2.664 18.973,4.857 18.973,7.56C18.973,10.265 16.783,12.456 14.078,12.456M64.322,24.93C63.947,16.228 59.773,7.224 48.872,2.791C49.014,3.198 49.149,3.627 49.271,4.077C49.408,4.565 49.505,5.084 49.613,5.604C49.673,6.135 49.792,6.661 49.801,7.206C49.832,7.744 49.865,8.28 49.82,8.811C49.806,9.074 49.793,9.335 49.78,9.593C49.74,9.849 49.702,10.101 49.663,10.35C49.62,10.596 49.597,10.841 49.54,11.073C49.475,11.305 49.413,11.532 49.352,11.752C49.291,11.972 49.232,12.184 49.175,12.39C49.102,12.591 49.016,12.78 48.942,12.963C48.785,13.326 48.662,13.665 48.518,13.949C48.359,14.226 48.22,14.466 48.106,14.665C47.879,15.06 47.75,15.284 47.75,15.284C47.75,15.284 47.848,15.043 48.02,14.623C48.104,14.413 48.208,14.16 48.326,13.869C48.43,13.572 48.504,13.224 48.608,12.855C48.654,12.669 48.712,12.478 48.755,12.278C48.783,12.072 48.812,11.862 48.842,11.645C48.871,11.43 48.901,11.207 48.932,10.981C48.956,10.754 48.946,10.518 48.954,10.283C48.959,10.047 48.963,9.808 48.968,9.565C48.947,9.323 48.926,9.078 48.905,8.831C48.881,8.339 48.782,7.847 48.686,7.356C48.614,6.864 48.433,6.39 48.316,5.918C48.151,5.455 48,4.998 47.814,4.572C47.453,3.713 47.045,2.946 46.662,2.313C46.575,2.169 46.49,2.035 46.407,1.905C45.763,1.702 45.104,1.509 44.417,1.335C43.518,1.108 42.641,0.918 41.777,0.756C41.969,1.274 42.155,1.831 42.314,2.426C42.452,2.915 42.549,3.434 42.657,3.954C42.717,4.485 42.836,5.011 42.845,5.555C42.877,6.094 42.908,6.63 42.864,7.161C42.851,7.423 42.837,7.686 42.824,7.943C42.785,8.198 42.746,8.451 42.707,8.699C42.665,8.946 42.641,9.19 42.584,9.424C42.52,9.656 42.457,9.881 42.396,10.102C42.335,10.32 42.276,10.534 42.218,10.74C42.146,10.941 42.06,11.129 41.986,11.313C41.829,11.676 41.707,12.015 41.562,12.3C41.403,12.575 41.264,12.816 41.15,13.014C40.924,13.409 40.794,13.634 40.794,13.634C40.794,13.634 40.892,13.394 41.063,12.972C41.149,12.762 41.252,12.509 41.37,12.219C41.474,11.923 41.548,11.574 41.651,11.205C41.699,11.019 41.756,10.829 41.8,10.628C41.828,10.423 41.856,10.212 41.886,9.994C41.915,9.779 41.945,9.558 41.976,9.33C42,9.105 41.99,8.869 41.999,8.633C42.003,8.397 42.008,8.157 42.012,7.915C41.991,7.672 41.97,7.428 41.949,7.181C41.925,6.689 41.826,6.196 41.73,5.706C41.657,5.214 41.477,4.739 41.36,4.268C41.195,3.804 41.045,3.348 40.859,2.922C40.496,2.063 40.089,1.296 39.707,0.663C39.654,0.576 39.603,0.497 39.551,0.415C38.054,0.237 36.588,0.177 35.129,0.246C35.179,0.414 35.23,0.58 35.276,0.753C35.414,1.241 35.512,1.761 35.619,2.28C35.679,2.812 35.798,3.338 35.807,3.882C35.839,4.422 35.87,4.956 35.826,5.487C35.813,5.751 35.799,6.012 35.786,6.27C35.747,6.525 35.708,6.777 35.669,7.026C35.626,7.272 35.603,7.517 35.546,7.75C35.482,7.983 35.419,8.208 35.358,8.43C35.297,8.648 35.238,8.86 35.18,9.066C35.108,9.267 35.021,9.456 34.948,9.639C34.791,10.003 34.669,10.343 34.523,10.626C34.364,10.902 34.226,11.144 34.112,11.342C33.886,11.736 33.756,11.961 33.756,11.961C33.756,11.961 33.854,11.72 34.025,11.299C34.11,11.09 34.214,10.836 34.332,10.545C34.436,10.251 34.51,9.9 34.613,9.533C34.66,9.347 34.718,9.156 34.762,8.954C34.79,8.751 34.818,8.538 34.847,8.321C34.877,8.106 34.907,7.884 34.938,7.658C34.961,7.431 34.952,7.195 34.961,6.959C34.965,6.723 34.969,6.484 34.974,6.241C34.953,6 34.932,5.755 34.911,5.508C34.887,5.016 34.788,4.522 34.692,4.033C34.619,3.541 34.439,3.066 34.322,2.594C34.157,2.132 34.007,1.675 33.82,1.248C33.693,0.948 33.56,0.663 33.425,0.387C29.559,0.846 25.65,2.262 21.171,4.938C20.974,3.059 16.026,-2.581 9.992,1.379C3.562,0.584 3.562,7.214 3.562,7.214C3.562,7.214 0.047,13.394 0.001,15.722C-0.032,17.279 0.907,17.7 1.806,17.97C6.453,15.324 10.671,15.953 14.099,16.464C15.884,16.731 17.431,16.958 18.589,16.631C18.989,16.517 19.41,16.753 19.524,17.156C19.637,17.557 19.403,17.977 19.001,18.093C17.528,18.506 15.836,18.255 13.874,17.963C10.808,17.505 7.061,16.975 3.038,19.051C6.859,25.706 17.441,27.963 25.129,22.649C26.806,22.754 29.006,23.004 31.38,23.201C31.818,23.238 31.389,24.619 30.964,25.998C30.815,26.478 25.141,27.666 25.03,28.086C24.824,28.878 30.188,28.234 30.571,28.781C30.951,29.33 29.879,31.848 30.374,33.036C30.703,33.827 33.383,33.017 34.133,31.155C34.511,30.228 32.928,28.389 33.28,27.654C34.336,25.449 35.262,23.439 35.424,23.441C36.525,23.475 37.621,23.479 38.686,23.428C40.906,23.327 43.051,23.118 45.035,22.944C45.287,22.923 45.71,23.809 46.157,24.842C46.359,25.315 42.439,26.03 42.641,26.496C43.055,27.443 46.5,26.806 47.786,27.99C49.073,29.178 49.114,32.373 50.062,32.74C50.586,32.94 52.775,31.368 52.337,29.376C51.698,26.468 48.197,22.716 48.381,22.709C50.81,22.596 52.83,22.713 54.216,23.43C59.362,26.093 55.603,45.897 42.741,46.889C35.734,47.427 33.395,41.822 34.265,38.696C35.124,35.607 38.984,33.928 41.655,34.326C44.326,34.718 44.819,37.194 43.635,38.874C43.476,39.096 43.297,39.3 43.103,39.49C42.646,39.026 42.008,38.736 41.305,38.736C39.909,38.736 38.779,39.868 38.779,41.262C38.779,42.659 39.909,43.786 41.305,43.786C42.566,43.786 43.603,42.861 43.792,41.648C44.471,41.479 45.142,41.15 45.712,40.558C47.988,38.182 47.492,33.928 43.182,32.468C38.36,30.836 31.602,33.867 31.403,39.012C31.205,44.154 35.925,50.19 44.056,49.725C56.123,49.029 64.806,36.498 64.322,24.93" style="fill:rgb(75,170,43);fill-rule:nonzero;"/>
    </g>
    <g transform="matrix(1,0,0,1,0,7.5)">
        <path d="M34.322,2.594C34.439,3.066 34.619,3.541 34.692,4.033C34.788,4.522 34.887,5.016 34.911,5.508C34.932,5.755 34.953,6 34.974,6.241C34.969,6.484 34.964,6.723 34.961,6.959C34.952,7.195 34.961,7.431 34.938,7.657C34.907,7.884 34.877,8.106 34.847,8.321C34.818,8.538 34.79,8.75 34.761,8.954C34.718,9.156 34.66,9.346 34.613,9.532C34.509,9.9 34.436,10.25 34.332,10.545C34.214,10.836 34.11,11.09 34.025,11.299C33.854,11.719 33.756,11.961 33.756,11.961C33.756,11.961 33.885,11.736 34.112,11.342C34.226,11.144 34.364,10.902 34.523,10.625C34.668,10.343 34.79,10.002 34.948,9.639C35.021,9.456 35.108,9.267 35.18,9.066C35.238,8.86 35.297,8.648 35.358,8.43C35.419,8.208 35.481,7.983 35.546,7.75C35.603,7.517 35.626,7.272 35.669,7.026C35.708,6.777 35.746,6.525 35.786,6.27C35.799,6.012 35.813,5.751 35.825,5.487C35.87,4.956 35.838,4.422 35.807,3.882C35.798,3.338 35.679,2.812 35.619,2.28C35.511,1.761 35.414,1.241 35.276,0.753C35.23,0.579 35.179,0.414 35.129,0.246C34.561,0.273 33.993,0.319 33.425,0.387C33.56,0.663 33.693,0.948 33.82,1.248C34.007,1.674 34.157,2.132 34.322,2.594" style="fill:rgb(224,221,0);fill-rule:nonzero;"/>
    </g>
    <g transform="matrix(1,0,0,1,0,7.5)">
        <path d="M40.858,2.921C41.045,3.348 41.195,3.805 41.36,4.267C41.477,4.739 41.658,5.214 41.73,5.706C41.826,6.196 41.925,6.688 41.949,7.181C41.97,7.427 41.991,7.672 42.012,7.915C42.007,8.157 42.003,8.397 41.999,8.633C41.99,8.869 42,9.105 41.976,9.33C41.945,9.557 41.915,9.778 41.886,9.994C41.856,10.212 41.827,10.423 41.799,10.628C41.756,10.828 41.698,11.019 41.652,11.205C41.548,11.575 41.474,11.923 41.37,12.219C41.252,12.509 41.148,12.763 41.064,12.972C40.892,13.393 40.794,13.634 40.794,13.634C40.794,13.634 40.923,13.408 41.15,13.015C41.265,12.817 41.403,12.575 41.562,12.299C41.706,12.015 41.829,11.675 41.986,11.312C42.06,11.129 42.146,10.94 42.219,10.739C42.276,10.534 42.335,10.321 42.396,10.102C42.457,9.881 42.519,9.655 42.584,9.424C42.641,9.19 42.664,8.947 42.707,8.699C42.746,8.452 42.784,8.198 42.824,7.943C42.837,7.685 42.85,7.423 42.864,7.16C42.909,6.63 42.876,6.094 42.845,5.555C42.836,5.011 42.717,4.485 42.657,3.953C42.549,3.434 42.452,2.914 42.315,2.426C42.154,1.831 41.969,1.274 41.777,0.755C41.025,0.615 40.284,0.502 39.552,0.415C39.603,0.497 39.654,0.575 39.706,0.662C40.089,1.296 40.497,2.062 40.858,2.921" style="fill:rgb(224,221,0);fill-rule:nonzero;"/>
    </g>
    <g transform="matrix(1,0,0,1,0,7.5)">
        <path d="M47.814,4.571C48.001,4.998 48.151,5.455 48.316,5.918C48.433,6.389 48.614,6.864 48.686,7.355C48.782,7.847 48.881,8.339 48.905,8.831C48.926,9.078 48.947,9.323 48.968,9.565C48.963,9.808 48.959,10.046 48.955,10.283C48.946,10.518 48.956,10.754 48.932,10.981C48.901,11.207 48.871,11.429 48.842,11.645C48.812,11.861 48.783,12.072 48.755,12.278C48.712,12.478 48.654,12.668 48.608,12.854C48.504,13.224 48.43,13.572 48.326,13.868C48.208,14.16 48.104,14.414 48.02,14.623C47.848,15.043 47.75,15.284 47.75,15.284C47.75,15.284 47.879,15.059 48.106,14.665C48.221,14.466 48.359,14.226 48.518,13.949C48.662,13.665 48.785,13.326 48.942,12.963C49.016,12.78 49.102,12.591 49.175,12.39C49.232,12.184 49.291,11.972 49.352,11.752C49.413,11.532 49.475,11.305 49.54,11.073C49.597,10.841 49.62,10.596 49.663,10.35C49.702,10.101 49.74,9.849 49.78,9.593C49.793,9.335 49.806,9.074 49.82,8.81C49.865,8.28 49.832,7.744 49.801,7.205C49.792,6.661 49.673,6.135 49.613,5.603C49.505,5.084 49.408,4.565 49.271,4.076C49.149,3.626 49.014,3.198 48.872,2.791C48.086,2.471 47.265,2.176 46.408,1.905C46.49,2.035 46.575,2.169 46.662,2.312C47.045,2.946 47.453,3.713 47.814,4.571" style="fill:rgb(224,221,0);fill-rule:nonzero;"/>
    </g>
</svg>
